X:16589
T:The Connaughtman's Rambles
M:6/8
R:jig
A:Ireland
K:Bm
AG|"D"FAA dAA|"G"BAB "D"dAG|FAA dfe|"Bm"dBB BAG|
"D"FAA dAA|"G"BAB "D"def|"Em"gfe dfe|"Bm"dBB B2:|
e|"D"fbb faa|fef d2e|fbb faa|fed "A"ede|
"D"fbb faa|fef def|"Em"gfe dfe|"Bm"dBB B2:|
